static/images/pieces/chennis/bFC_r.svg

<svg height="45" width="45" xmlns="http://www.w3.org/2000/svg"><g fill="#3e588a" transform="matrix(.31149041 0 0 .31149041 -30.492973 1.587131)"><path d="m20.797635 46.559481 17.906034 15.25124 5.989759-5.634783c-1.05688-1.056879-14.521359-17.454017-14.521359-17.454017-7.338306-9.869936-17.191534.685323-9.374434 7.83756z" transform="matrix(1.9382789 -.51936028 .51936028 1.9382789 99.026581 16.67806)"/><circle cx="-179.4025" cy="-74.423836" r="15.100924" transform="scale(-1)"/><path d="m170.36022 78.97738-17.73306-.381356c-3.45716-10.445697-10.54397-14.841974-17.73305-19.067797 15.41624 0 17.09809 3.933397 22.30933 9.283403l12.9661.623091z"/><circle cx="-179.4025" cy="-74.423836" r="10.97773" stroke="#eaeaea" stroke-linecap="round" stroke-linejoin="round" stroke-width="3.89722" transform="scale(-1)"/></g><g fill-rule="evenodd" stroke="#000" stroke-linecap="round" stroke-linejoin="round" stroke-width="1.5" transform="translate(0 3)"><g stroke="none" transform="scale(-1)"><circle cx="-39" cy="-30" r="2.75"/><circle cx="-22.5" cy="-34" r="2.75"/><circle cx="-6" cy="-30" r="2.75"/></g><path d="m36 16c-8.5 1.5-21 1.5-27 0l-2.5 12.5 7.5-11.5 2 5 3.5-4.5 3 14.5 3-14.5 3.5 4.5 2-5 7.5 11.5z" stroke-linecap="butt"/><path d="m36 16c0-2-1.5-2-2.5-4-1-1.5-1-1-.5-3.5 1.5-1 1.5-2.5 1.5-2.5h-23.5s-.5 1.5 1 2.5c.5 2.5.5 2-.5 3.5-1 2-2.5 2-2.5 4 8.5 1.5 18.5 1.5 27 0z" stroke-linecap="butt"/><path d="m34 13c-7.44776 2.590974-15.55224 2.590974-23 0m21.5-2.5c-6.946703 1.120144-13.557044.894841-20 0" fill="none" stroke="#ececec"/></g></svg>

<?xml version="1.0" encoding="UTF-8" standalone="no"?>
<svg
   xmlns:dc="http://purl.org/dc/elements/1.1/"
   xmlns:cc="http://creativecommons.org/ns#"
   xmlns:rdf="http://www.w3.org/1999/02/22-rdf-syntax-ns#"
   xmlns:svg="http://www.w3.org/2000/svg"
   xmlns="http://www.w3.org/2000/svg"
   xmlns:sodipodi="http://sodipodi.sourceforge.net/DTD/sodipodi-0.dtd"
   xmlns:inkscape="http://www.inkscape.org/namespaces/inkscape"
   width="45"
   height="45"
   version="1.1"
   id="svg10994"
   sodipodi:docname="bFC.svg"
   inkscape:version="1.0.1 (3bc2e813f5, 2020-09-07)">
  <metadata
     id="metadata11000">
    <rdf:RDF>
      <cc:Work
         rdf:about="">
        <dc:format>image/svg+xml</dc:format>
        <dc:type
           rdf:resource="http://purl.org/dc/dcmitype/StillImage" />
        <dc:title />
      </cc:Work>
    </rdf:RDF>
  </metadata>
  <defs
     id="defs10998" />
  <sodipodi:namedview
     pagecolor="#ffffff"
     bordercolor="#666666"
     borderopacity="1"
     objecttolerance="10"
     gridtolerance="10"
     guidetolerance="10"
     inkscape:pageopacity="0"
     inkscape:pageshadow="2"
     inkscape:window-width="1918"
     inkscape:window-height="2037"
     id="namedview10996"
     showgrid="false"
     inkscape:zoom="7.919596"
     inkscape:cx="45.26713"
     inkscape:cy="36.116342"
     inkscape:window-x="5749"
     inkscape:window-y="0"
     inkscape:window-maximized="0"
     inkscape:current-layer="svg10994"
     inkscape:document-rotation="0" />
  <g
     id="g11069"
     transform="matrix(0.31149041,0,0,0.31149041,-30.492973,1.5871307)"
     style="display:inline;fill:#3e588a;fill-opacity:1">
    <g
       id="g4488-2"
       transform="matrix(1.9382789,-0.51936028,0.51936028,1.9382789,99.026581,16.67806)"
       style="fill:#3e588a;fill-opacity:1">
      <path
         sodipodi:nodetypes="ccccc"
         inkscape:connector-curvature="0"
         id="path980-1"
         d="m 20.797635,46.559481 17.906034,15.25124 5.989759,-5.634783 C 43.636548,55.119059 30.172069,38.721921 30.172069,38.721921 c -7.338306,-9.869936 -17.191534,0.685323 -9.374434,7.83756 z"
         style="fill:#3e588a;fill-opacity:1;stroke:none;stroke-width:1.5;stroke-linecap:butt;stroke-linejoin:round;stroke-miterlimit:4;stroke-dasharray:none;stroke-opacity:1" />
    </g>
    <circle
       style="fill:#3e588a;fill-opacity:1;stroke:none;stroke-width:3.37688;stroke-linecap:round;stroke-linejoin:round;stroke-miterlimit:4;stroke-dasharray:none;stroke-opacity:1;paint-order:stroke fill markers"
       id="path11057"
       cx="-179.4025"
       cy="-74.423836"
       r="15.100924"
       transform="scale(-1)" />
    <path
       style="fill:#3e588a;fill-opacity:1;stroke:none;stroke-width:1px;stroke-linecap:butt;stroke-linejoin:miter;stroke-opacity:1"
       d="M 170.36022,78.97738 152.62716,78.596024 C 149.17,68.150327 142.08319,63.75405 134.89411,59.528227 c 15.41624,0 17.09809,3.933397 22.30933,9.283403 l 12.9661,0.623091 z"
       id="path11061"
       sodipodi:nodetypes="cccccc" />
    <circle
       style="fill:#3e588a;fill-opacity:1;stroke:#eaeaea;stroke-width:3.89722;stroke-linecap:round;stroke-linejoin:round;stroke-miterlimit:4;stroke-dasharray:none;stroke-opacity:1;paint-order:stroke fill markers"
       id="circle11059"
       cx="-179.4025"
       cy="-74.423836"
       r="10.97773"
       transform="scale(-1)" />
  </g>
  <g
     fill-rule="evenodd"
     stroke="#000000"
     stroke-width="1.5"
     stroke-linecap="round"
     stroke-linejoin="round"
     id="g10992"
     transform="translate(0,3)">
    <g
       stroke="none"
       id="g10982">
      <circle
         cx="-39"
         cy="-30"
         r="2.75"
         id="circle10972"
         transform="scale(-1)" />
      <circle
         cx="-22.5"
         cy="-34"
         r="2.75"
         id="circle10976"
         transform="scale(-1)" />
      <circle
         cx="-6"
         cy="-30"
         r="2.75"
         id="circle10980"
         transform="scale(-1)" />
    </g>
    <path
       d="M 36,16 C 27.5,17.5 15,17.5 9,16 L 6.5,28.5 14,17 l 2,5 3.5,-4.5 3,14.5 3,-14.5 3.5,4.5 2,-5 7.5,11.5 z"
       stroke-linecap="butt"
       id="path10984"
       sodipodi:nodetypes="cccccccccccc" />
    <path
       d="M 36,16 C 36,14 34.5,14 33.5,12 32.5,10.5 32.5,11 33,8.5 34.5,7.5 34.5,6 34.5,6 H 11 c 0,0 -0.5,1.5 1,2.5 0.5,2.5 0.5,2 -0.5,3.5 -1,2 -2.5,2 -2.5,4 8.5,1.5 18.5,1.5 27,0 z"
       stroke-linecap="butt"
       id="path10986"
       sodipodi:nodetypes="ccccccccc" />
    <path
       d="m 34,13 c -7.44776,2.590974 -15.55224,2.590974 -23,0 m 21.5,-2.5 c -6.946703,1.120144 -13.557044,0.894841 -20,0"
       fill="none"
       stroke="#ececec"
       id="path10990"
       sodipodi:nodetypes="cccc" />
  </g>
</svg>
